build/img/tel.svg

<svg width="40" height="44" viewBox="0 0 40 44" fill="none" xmlns="http://www.w3.org/2000/svg">
<g clip-path="url(#clip0)">
<path d="M7.39696 35.5143L10.1138 29.3706C10.6563 28.1506 12.1279 27.6122 13.3943 28.1726L16.489 29.5409C16.6 29.4087 16.7146 29.2711 16.8347 29.1256C17.9421 27.7996 19.4573 25.9833 20.7017 23.167C21.9504 20.344 22.2747 17.9978 22.5127 16.2845C22.5375 16.1031 22.561 15.9285 22.5863 15.7614L20.51 14.8449L19.4885 14.3924C18.2202 13.8312 17.6301 12.3801 18.1696 11.1583L20.8862 5.01415C21.4262 3.79356 22.8984 3.25495 24.1667 3.81609L25.9008 4.58901L25.8798 4.63607C26.505 5.00838 27.0931 5.48922 27.6104 6.05296C28.0949 6.59259 28.4777 7.13832 28.7799 7.71665C31.2401 12.3399 30.7379 17.629 27.0494 25.9688C21.9505 37.4963 15.0082 39.459 14.7073 39.5401C14.0487 39.7082 13.3873 39.7911 12.6822 39.7901C11.924 39.7875 11.1732 39.6762 10.4778 39.4649L10.4599 39.4997L8.71611 38.7502C7.4498 38.1885 6.85842 36.7374 7.39696 35.5143Z" fill="#07BBF0"/>
</g>
<defs>
<clipPath id="clip0">
<rect width="40" height="44" fill="white"/>
</clipPath>
</defs>
</svg>

<svg width="40" height="44" fill="none" xmlns="http://www.w3.org/2000/svg"><g clip-path="url(#clip0)"><path d="M7.397 35.514l2.717-6.143c.542-1.22 2.014-1.759 3.28-1.198l3.095 1.368.346-.415c1.107-1.326 2.622-3.143 3.867-5.959 1.248-2.823 1.573-5.17 1.81-6.883.026-.18.049-.355.074-.523l-2.076-.916-1.022-.453c-1.268-.56-1.858-2.012-1.318-3.234l2.716-6.144c.54-1.22 2.012-1.76 3.28-1.198l1.735.773-.021.047a7.742 7.742 0 0 1 1.73 1.417 8.07 8.07 0 0 1 1.17 1.664c2.46 4.623 1.958 9.912-1.73 18.252-5.1 11.527-12.042 13.49-12.343 13.571a8.03 8.03 0 0 1-2.025.25 7.715 7.715 0 0 1-2.204-.325l-.018.035-1.744-.75c-1.266-.562-1.858-2.013-1.319-3.236z" fill="#07BBF0"/></g><defs><clipPath id="clip0"><path fill="#fff" d="M0 0h40v44H0z"/></clipPath></defs></svg>
